X: 305551
T: The WONDER HORNPIPE
C:
%R: hornpipe, reel
B: Elias Howe "The Musician's Companion" Part 3 1844 p.58 #3
S: http://imslp.org/wiki/The_Musician's_Companion_(Howe,_Elias)
S: https://archive.org/stream/firstthirdpartof03howe/#page/66/mode/1up
Z: 2015 John Chambers <jc:trillian.mit.edu>
M: 2/4
L: 1/16
K: D
% - - - - - - - - - - - - - - - - - - - - - - - - -
d2(Bd) |\
fdcd AGFE | F2D2 d2(cd) | fdcd g2f2 | e4 d2 (cd) |\
fdcd AGFE | F2D2 fdec | dBcA  E2^G2 | A4 :|
|: AdAF |\
DEFG AB=cA | B2G2 BdB^G | EF^GA BcdB | c2A2 eaec |\
ABcd efge | f2d2 fafg | efde A2c2 | d4 :|
% - - - - - - - - - - - - - - - - - - - - - - - - -


